X:1
T:Title
%%score { 1 | 2 }
L:1/8
Q:1/4=106
M:4/4
K:F
V:1 treble nm="Grand Piano"
V:2 bass 
V:1
 F2 F2 F2 F>G | A2 c2 c4 | A2 A2 [EG]4 | [FA]2 [FA]2 [EG]4 | F2 F2 F2 F>G | A2 c2 c2 [CF]>[DFG] | %6
w: W.~J.~Kirkpatrick * * * *||||||
 [FA] [FA]3 [EG]3 G | F6 z2 | F2 F2 F2 F>G | A2 c2 c4 | A2 A2 [EG]4 | [FA]2 [FA]2 [EG]4 | %12
w: ||||||
 F2 F2 F2 F>G | A2 c2 c2 [CF]>[DFG] | [FA] [FA]3 [EG]3 G | F6 z2 | A2 c2 c2 c>c | d2 c2 A [Ac]3 | %18
w: ||||||
 F2 F2 F2 F>F | [=B,FA]2 [B,FG]2 [CEG]4 | A2 c2 c2 c>c | d2 c2 A c3 | F2 F>F F F3 | %23
w: |||||
 [FA]2 [EG]2 [A,CF]4 |] %24
w: |
V:2
 [F,A,C]2 [F,A,C]2 [F,A,C]2 [F,A,C]>[F,B,C] | [F,CF]2 [F,A,F]2 [F,A,F]4 | [F,CF]2 [F,CF]2 [C,C]4 | %3
 [F,C]2 [F,C]2 [C,C]4 | [F,A,C]2 [F,A,C]2 [F,A,C]2 [F,A,C]>[F,B,C] | %5
 [F,CF]2 [F,A,F]2 [F,A,F]2 A,,>B,, | [C,C] [C,C]3 [C,B,]3 [C,B,C] | [F,A,C]6 z2 | %8
 [F,A,C]2 [F,A,C]2 [F,A,C]2 [F,A,C]>[F,B,C] | [F,CF]2 [F,A,F]2 [F,A,F]4 | [F,CF]2 [F,CF]2 [C,C]4 | %11
 [F,C]2 [F,C]2 [C,C]4 | [F,A,C]2 [F,A,C]2 [F,A,C]2 [F,A,C]>[F,B,C] | %13
 [F,CF]2 [F,A,F]2 [F,A,F]2 A,,>B,, | [C,C] [C,C]3 [C,B,]3 [C,B,C] | [F,A,C]6 z2 | %16
 [F,CF]2 [F,A,F]2 [F,A,F]2 [F,A,F]>[F,A,F] | [F,B,F]2 [F,A,F]2 [F,CF] [F,C]3 | %18
 [F,A,C]2 [F,A,C]2 [D,A,D]2 [D,A,D]>[D,A,D] | G,,2 G,,2 C,4 | %20
 [F,CF]2 [F,A,F]2 [F,A,F]2 [F,A,F]>[F,A,F] | [F,B,F]2 [F,A,F]2 [F,CF] [F,A,F]3 | %22
 [D,A,]2 [D,A,]>[D,A,] [^C,=B,] [C,B,]3 | [C,C]2 [C,B,]2 [F,,F,]4 |] %24

